Obsidian-SemiLight/actions/22s/trash-empty.svg

<svg viewBox="0 0 22 22" xmlns="http://www.w3.org/2000/svg"><path d="m8 3v1 1h1v-1h4v1h1v-1-1zm-4 3v1h14v-1zm2 2v11h1 9v-1-10h-1v10h-8v-10z" fill="#4d4d4d"/></svg>

<svg xmlns="http://www.w3.org/2000/svg" viewBox="0 0 22 22">
  <defs id="defs3051">
    <style type="text/css" id="current-color-scheme">
      .ColorScheme-Text {
        color:#4d4d4d;
      }
      </style>
  </defs>
 <path 
    style="fill:currentColor;fill-opacity:1;stroke:none" 
    d="M 8 3 L 8 4 L 8 5 L 9 5 L 9 4 L 13 4 L 13 5 L 14 5 L 14 4 L 14 3 L 8 3 z M 4 6 L 4 7 L 18 7 L 18 6 L 4 6 z M 6 8 L 6 19 L 7 19 L 16 19 L 16 18 L 16 8 L 15 8 L 15 18 L 7 18 L 7 8 L 6 8 z "
	class="ColorScheme-Text"
    />  
</svg>
